src/components/atoms/Icon/icons/logo-large.svg

<?xml version="1.0" encoding="UTF-8"?>
<svg width="36px" height="36px" viewBox="0 0 36 36" version="1.1" xmlns="http://www.w3.org/2000/svg" xmlns:xlink="http://www.w3.org/1999/xlink">
    <!-- Generator: Sketch 49.3 (51167) - http://www.bohemiancoding.com/sketch -->
    <title>Icon/36/Logo</title>
    <desc>Created with Sketch.</desc>
    <defs>
        <rect id="path-1" x="0" y="0" width="36" height="36"></rect>
        <linearGradient x1="50%" y1="0%" x2="50%" y2="100%" id="linearGradient-3">
            <stop stop-color="#6BC6C4" offset="25%"></stop>
            <stop stop-color="#3780AA" offset="100%"></stop>
        </linearGradient>
    </defs>
    <g id="Icon/36/Logo" stroke="none" stroke-width="1" fill="none" fill-rule="evenodd">
        <g id="Logo">
            <mask id="mask-2" fill="white">
                <use xlink:href="#path-1"></use>
            </mask>
            <use id="Mask" fill-opacity="0" fill="#D8D8D8" xlink:href="#path-1"></use>
            <path d="M1,17.49 C4.82,15.9566667 7.54,17.1666667 9.16,21.12 C5.68666667,21.8666667 2.96666667,20.6566667 1,17.49 Z M1.65,27.23 C6.04333333,29.9433333 10.1666667,29.77 14.02,26.71 C9.56,22.79 5.43333333,22.9633333 1.64,27.23 L1.65,27.23 Z M18.01,27 C17.326071,26.9894082 16.6679016,27.2606319 16.19,27.75 C15.6934312,28.2395332 15.4218971,28.9129379 15.44,29.61 C15.4329403,30.2844687 15.7042576,30.9320126 16.19,31.4 C16.6679016,31.8893681 17.326071,32.1605918 18.01,32.15 L18.17,32.15 C18.4529897,32.1486892 18.7324796,32.0873378 18.99,31.97 C19.9598917,31.5824079 20.597059,30.6444658 20.6,29.6 C20.617174,28.9050517 20.3498842,28.2332154 19.86,27.74 C19.3745929,27.2445142 18.7032161,26.9759634 18.01,27 Z M18.01,4 C16.1433333,6.76 16.1433333,9.42666667 18.01,12 C20.6366667,9.22666667 20.6333333,6.56 18,4 L18.01,4 Z M17.01,25.18 C18.4233333,16.16 15.6533333,10.59 8.7,8.47 C8.53333333,16.5433333 11.2866667,22.1133333 16.96,25.18 L17.01,25.18 Z M22.36,26.71 C26.2066667,29.77 30.33,29.9433333 34.73,27.23 C30.9033333,22.9766667 26.7633333,22.8033333 22.31,26.71 L22.36,26.71 Z M19.82,25.18 C25.4933333,22.1066667 28.2366667,16.5366667 28.05,8.47 C21.08,10.6 18.36,16.16 19.77,25.18 L19.82,25.18 Z M27.22,21.12 C30.6933333,21.8666667 33.4133333,20.6566667 35.38,17.49 C31.5333333,15.9566667 28.8,17.1666667 27.18,21.12 L27.22,21.12 Z" fill="url(#linearGradient-3)" fill-rule="nonzero" mask="url(#mask-2)"></path>
        </g>
    </g>
</svg>

<svg width="36" height="36" xmlns="http://www.w3.org/2000/svg" xmlns:xlink="http://www.w3.org/1999/xlink"><defs><path id="logo-large-a" d="M0 0h36v36H0z"/><linearGradient x1="50%" y1="0%" x2="50%" y2="100%" id="logo-large-b"><stop stop-color="#6BC6C4" offset="25%"/><stop stop-color="#3780AA" offset="100%"/></linearGradient></defs><g fill="none" fill-rule="evenodd"><mask id="logo-large-c" fill="#fff"><use xlink:href="#logo-large-a"/></mask><use fill-opacity="0" fill="#D8D8D8" xlink:href="#logo-large-a"/><path d="M1 17.49c3.82-1.533 6.54-.323 8.16 3.63-3.473.747-6.193-.463-8.16-3.63zm.65 9.74c4.393 2.713 8.517 2.54 12.37-.52-4.46-3.92-8.587-3.747-12.38.52h.01zM18.01 27a2.49 2.49 0 0 0-1.82.75 2.52 2.52 0 0 0-.75 1.86 2.45 2.45 0 0 0 .75 1.79 2.49 2.49 0 0 0 1.82.75h.16a2 2 0 0 0 .82-.18 2.56 2.56 0 0 0 1.61-2.37 2.55 2.55 0 0 0-.74-1.86 2.47 2.47 0 0 0-1.85-.74zm0-23c-1.867 2.76-1.867 5.427 0 8 2.627-2.773 2.623-5.44-.01-8h.01zm-1 21.18c1.413-9.02-1.357-14.59-8.31-16.71-.167 8.073 2.587 13.643 8.26 16.71h.05zm5.35 1.53c3.847 3.06 7.97 3.233 12.37.52-3.827-4.253-7.967-4.427-12.42-.52h.05zm-2.54-1.53c5.673-3.073 8.417-8.643 8.23-16.71-6.97 2.13-9.69 7.69-8.28 16.71h.05zm7.4-4.06c3.473.747 6.193-.463 8.16-3.63-3.847-1.533-6.58-.323-8.2 3.63h.04z" fill="url(#logo-large-b)" fill-rule="nonzero" mask="url(#logo-large-c)"/></g></svg>
